static/img/mobile/status-bars-dark.svg

<svg fill="none" height="260" viewBox="0 0 961 260" width="961" xmlns="http://www.w3.org/2000/svg" xmlns:xlink="http://www.w3.org/1999/xlink"><clipPath id="a"><path d="m583 92h21v21h-21z"/></clipPath><clipPath id="b"><path d="m609 92h21v21h-21z"/></clipPath><clipPath id="c"><path d="m635 92h21v21h-21z"/></clipPath><clipPath id="d"><path d="m583 147h21v21h-21z"/></clipPath><clipPath id="e"><path d="m609 147h21v21h-21z"/></clipPath><clipPath id="f"><path d="m635 147h21v21h-21z"/></clipPath><path d="m0 0h961v260h-961z" fill="#252a2e"/><path d="m293 80h375v45h-375z" fill="#171c1e"/><path d="m308.691 107.5h1.89v-10.5688h-1.882l-2.761 1.9409v1.7799l2.629-1.8605h.124zm4.527 0h7.339v-1.567h-4.783v-.154l2.117-2.051c1.926-1.853 2.505-2.805 2.505-4.0063v-.022c0-1.7798-1.48-3.0322-3.538-3.0322-2.204 0-3.742 1.3769-3.742 3.3475l.007.022 1.758.007.007-.029c0-1.0917.754-1.8314 1.875-1.8314 1.099 0 1.765.7031 1.765 1.6772v.022c0 .8132-.403 1.3472-1.838 2.7982l-3.472 3.545zm10.496-6.848c.674 0 1.165-.513 1.165-1.1574 0-.6518-.491-1.1572-1.165-1.1572-.667 0-1.165.5054-1.165 1.1572 0 .6444.498 1.1574 1.165 1.1574zm0 5.434c.674 0 1.165-.505 1.165-1.157s-.491-1.157-1.165-1.157c-.667 0-1.165.505-1.165 1.157s.498 1.157 1.165 1.157zm8.152 1.414h1.809v-2.029h1.421v-1.56h-1.421v-6.9798h-2.673c-1.436 2.1826-2.937 4.6138-4.307 6.9948v1.545h5.171zm-3.413-3.545v-.11c1.025-1.794 2.249-3.75 3.333-5.4051h.109v5.5151zm12.261 3.757c2.432 0 4.124-1.259 4.124-3.068v-.015c0-1.355-.982-2.402-2.395-2.688v-.044c1.208-.322 2.014-1.209 2.014-2.3438v-.0146c0-1.626-1.553-2.8198-3.743-2.8198s-3.743 1.1938-3.743 2.8198v.0146c0 1.1348.806 2.0218 2.015 2.3438v.044c-1.407.286-2.395 1.333-2.395 2.688v.015c0 1.809 1.691 3.068 4.123 3.068zm0-6.416c-1.106 0-1.875-.644-1.875-1.567v-.0146c0-.9229.769-1.5674 1.875-1.5674s1.875.6445 1.875 1.5674v.0146c0 .923-.769 1.567-1.875 1.567zm0 4.974c-1.267 0-2.168-.733-2.168-1.751v-.015c0-1.025.886-1.765 2.168-1.765 1.274 0 2.168.74 2.168 1.765v.015c0 1.018-.901 1.751-2.168 1.751z" fill="#fff"/><g clip-path="url(#a)"><path d="m591.855 101.774h-1.566c-.412 0-.683.288-.683.708v4.935c0 .42.271.709.683.709h1.566c.411 0 .682-.289.682-.709v-4.935c0-.42-.271-.708-.682-.708zm-4.856 2.03h-1.567c-.411 0-.682.28-.682.7v2.913c0 .42.271.709.682.709h1.567c.411 0 .682-.289.682-.709v-2.913c0-.42-.271-.7-.682-.7zm9.712-4.3753h-1.566c-.411 0-.682.2888-.682.7083v7.28c0 .42.271.709.682.709h1.566c.403 0 .683-.289.683-.709v-7.28c0-.4195-.28-.7083-.683-.7083zm4.865-2.5637h-1.575c-.402 0-.682.2887-.682.7087v9.8433c0 .42.28.709.682.709h1.575c.403 0 .674-.289.674-.709v-9.8433c0-.42-.271-.7087-.674-.7087z" fill="#fff"/></g><g clip-path="url(#b)"><path d="m619.501 105.064c-1.103 0-2.039.577-2.529 1.242-.079.123-.044.263.079.377l1.846 1.776c.298.28.438.367.604.367s.315-.078.604-.367l1.855-1.776c.113-.114.14-.28.035-.42-.49-.639-1.427-1.19-2.503-1.19zm0-4.445c-2.371 0-4.498 1.059-5.644 2.459-.114.14-.105.288.026.428l1.182 1.182c.166.157.376.14.525-.027.91-1.015 2.397-1.75 3.92-1.741 1.531 0 3.027.753 3.955 1.768.14.157.323.148.49 0l1.181-1.173c.122-.122.14-.289.026-.429-1.146-1.408-3.272-2.458-5.644-2.458zm8.671-.604c-1.785-2.205-5.145-3.8237-8.671-3.8237s-6.895 1.6187-8.671 3.8237c-.105.131-.105.298.026.438l1.05 1.067c.149.149.367.149.507 0 1.873-1.9862 4.332-3.0362 7.088-3.0362s5.25 1.0587 7.105 3.0362c.14.14.341.131.49-.017l1.05-1.05c.14-.14.131-.307.026-.438z" fill="#fff" opacity=".85"/></g><g clip-path="url(#c)"><path d="m646.594 100.137h-7.149c-.42 0-.665.062-.831.228-.158.166-.228.411-.228.822v2.643c0 .411.062.647.228.814.166.166.411.227.813.227h7.167c.411 0 .647-.061.814-.227.166-.167.227-.403.227-.814v-2.651c0-.412-.061-.648-.227-.814-.167-.166-.403-.228-.814-.228zm2.598-1.6358h-9.301c-.997 0-1.846.0963-2.45.7-.604.6038-.691 1.4528-.691 2.4328v1.715c0 1.015.087 1.846.691 2.45.604.603 1.453.7 2.459.7h9.292c1.015 0 1.864-.097 2.468-.7.604-.604.691-1.444.691-2.45v-1.698c0-1.015-.087-1.846-.691-2.4498-.604-.6037-1.453-.7-2.468-.7zm2.205 5.0048c0 .613-.078 1.243-.437 1.601-.359.359-.998.438-1.601.438h-9.616c-.613 0-1.252-.079-1.611-.438-.358-.358-.428-.997-.428-1.601v-2.004c0-.621.078-1.251.428-1.6095.359-.3588 1.007-.4375 1.628-.4375h9.599c.612 0 1.251.0787 1.601.4375.359.3585.437.9885.437 1.5925zm1.759-2.537v3.053c.464-.026 1.094-.63 1.094-1.531s-.63-1.496-1.094-1.522z" fill="#fff" opacity=".85"/></g><path d="m293 135h375v45h-375z" fill="#004f83"/><path d="m308.691 162.5h1.89v-10.569h-1.882l-2.761 1.941v1.78l2.629-1.86h.124zm4.527 0h7.339v-1.567h-4.783v-.154l2.117-2.051c1.926-1.853 2.505-2.805 2.505-4.006v-.022c0-1.78-1.48-3.033-3.538-3.033-2.204 0-3.742 1.377-3.742 3.348l.007.022 1.758.007.007-.029c0-1.092.754-1.831 1.875-1.831 1.099 0 1.765.703 1.765 1.677v.022c0 .813-.403 1.347-1.838 2.798l-3.472 3.545zm10.496-6.848c.674 0 1.165-.513 1.165-1.157 0-.652-.491-1.158-1.165-1.158-.667 0-1.165.506-1.165 1.158 0 .644.498 1.157 1.165 1.157zm0 5.434c.674 0 1.165-.505 1.165-1.157s-.491-1.157-1.165-1.157c-.667 0-1.165.505-1.165 1.157s.498 1.157 1.165 1.157zm8.152 1.414h1.809v-2.029h1.421v-1.56h-1.421v-6.98h-2.673c-1.436 2.183-2.937 4.614-4.307 6.995v1.545h5.171zm-3.413-3.545v-.11c1.025-1.794 2.249-3.75 3.333-5.405h.109v5.515zm12.261 3.757c2.432 0 4.124-1.259 4.124-3.068v-.015c0-1.355-.982-2.402-2.395-2.688v-.044c1.208-.322 2.014-1.209 2.014-2.344v-.014c0-1.626-1.553-2.82-3.743-2.82s-3.743 1.194-3.743 2.82v.014c0 1.135.806 2.022 2.015 2.344v.044c-1.407.286-2.395 1.333-2.395 2.688v.015c0 1.809 1.691 3.068 4.123 3.068zm0-6.416c-1.106 0-1.875-.644-1.875-1.567v-.015c0-.922.769-1.567 1.875-1.567s1.875.645 1.875 1.567v.015c0 .923-.769 1.567-1.875 1.567zm0 4.974c-1.267 0-2.168-.733-2.168-1.751v-.015c0-1.025.886-1.765 2.168-1.765 1.274 0 2.168.74 2.168 1.765v.015c0 1.018-.901 1.751-2.168 1.751z" fill="#fff"/><g clip-path="url(#d)"><path d="m591.855 156.774h-1.566c-.412 0-.683.288-.683.708v4.935c0 .42.271.709.683.709h1.566c.411 0 .682-.289.682-.709v-4.935c0-.42-.271-.708-.682-.708zm-4.856 2.03h-1.567c-.411 0-.682.28-.682.7v2.913c0 .42.271.709.682.709h1.567c.411 0 .682-.289.682-.709v-2.913c0-.42-.271-.7-.682-.7zm9.712-4.375h-1.566c-.411 0-.682.288-.682.708v7.28c0 .42.271.709.682.709h1.566c.403 0 .683-.289.683-.709v-7.28c0-.42-.28-.708-.683-.708zm4.865-2.564h-1.575c-.402 0-.682.289-.682.709v9.843c0 .42.28.709.682.709h1.575c.403 0 .674-.289.674-.709v-9.843c0-.42-.271-.709-.674-.709z" fill="#fff"/></g><g clip-path="url(#e)"><path d="m619.501 160.064c-1.103 0-2.039.577-2.529 1.242-.079.123-.044.263.079.377l1.846 1.776c.298.28.438.367.604.367s.315-.078.604-.367l1.855-1.776c.113-.114.14-.28.035-.42-.49-.639-1.427-1.19-2.503-1.19zm0-4.445c-2.371 0-4.498 1.059-5.644 2.459-.114.14-.105.288.026.428l1.182 1.182c.166.157.376.14.525-.027.91-1.015 2.397-1.75 3.92-1.741 1.531 0 3.027.753 3.955 1.768.14.157.323.148.49 0l1.181-1.173c.122-.122.14-.289.026-.429-1.146-1.408-3.272-2.458-5.644-2.458zm8.671-.604c-1.785-2.205-5.145-3.824-8.671-3.824s-6.895 1.619-8.671 3.824c-.105.131-.105.298.026.438l1.05 1.067c.149.149.367.149.507 0 1.873-1.986 4.332-3.036 7.088-3.036s5.25 1.059 7.105 3.036c.14.14.341.131.49-.017l1.05-1.05c.14-.14.131-.307.026-.438z" fill="#fff" opacity=".85"/></g><g clip-path="url(#f)"><path d="m646.594 155.137h-7.149c-.42 0-.665.062-.831.228-.158.166-.228.411-.228.822v2.643c0 .411.062.647.228.814.166.166.411.227.813.227h7.167c.411 0 .647-.061.814-.227.166-.167.227-.403.227-.814v-2.651c0-.412-.061-.648-.227-.814-.167-.166-.403-.228-.814-.228zm2.598-1.636h-9.301c-.997 0-1.846.096-2.45.7s-.691 1.453-.691 2.433v1.715c0 1.015.087 1.846.691 2.45.604.603 1.453.7 2.459.7h9.292c1.015 0 1.864-.097 2.468-.7.604-.604.691-1.444.691-2.45v-1.698c0-1.015-.087-1.846-.691-2.45s-1.453-.7-2.468-.7zm2.205 5.005c0 .613-.078 1.243-.437 1.601-.359.359-.998.438-1.601.438h-9.616c-.613 0-1.252-.079-1.611-.438-.358-.358-.428-.997-.428-1.601v-2.004c0-.621.078-1.251.428-1.61.359-.358 1.007-.437 1.628-.437h9.599c.612 0 1.251.079 1.601.437.359.359.437.989.437 1.593zm1.759-2.537v3.053c.464-.026 1.094-.63 1.094-1.531s-.63-1.496-1.094-1.522z" fill="#fff" opacity=".85"/></g></svg>

<svg width="961" height="260" viewBox="0 0 961 260" fill="none" xmlns="http://www.w3.org/2000/svg">
<rect width="961" height="260" fill="#252A2E"/>
<rect width="375" height="45" transform="translate(293 80)" fill="#171C1E"/>
<path d="M308.691 107.5H310.581V96.9312H308.699L305.938 98.8721V100.652L308.567 98.7915H308.691V107.5ZM313.218 107.5H320.557V105.933H315.774V105.779L317.891 103.728C319.817 101.875 320.396 100.923 320.396 99.7217V99.6997C320.396 97.9199 318.916 96.6675 316.858 96.6675C314.654 96.6675 313.116 98.0444 313.116 100.015L313.123 100.037L314.881 100.044L314.888 100.015C314.888 98.9233 315.642 98.1836 316.763 98.1836C317.862 98.1836 318.528 98.8867 318.528 99.8608V99.8828C318.528 100.696 318.125 101.23 316.69 102.681L313.218 106.226V107.5ZM323.714 100.652C324.388 100.652 324.879 100.139 324.879 99.4946C324.879 98.8428 324.388 98.3374 323.714 98.3374C323.047 98.3374 322.549 98.8428 322.549 99.4946C322.549 100.139 323.047 100.652 323.714 100.652ZM323.714 106.086C324.388 106.086 324.879 105.581 324.879 104.929C324.879 104.277 324.388 103.772 323.714 103.772C323.047 103.772 322.549 104.277 322.549 104.929C322.549 105.581 323.047 106.086 323.714 106.086ZM331.866 107.5H333.675V105.471H335.096V103.911H333.675V96.9312H331.002C329.566 99.1138 328.065 101.545 326.695 103.926V105.471H331.866V107.5ZM328.453 103.955V103.845C329.478 102.051 330.702 100.095 331.786 98.4399H331.895V103.955H328.453ZM340.714 107.712C343.146 107.712 344.838 106.453 344.838 104.644V104.629C344.838 103.274 343.856 102.227 342.443 101.941V101.897C343.651 101.575 344.457 100.688 344.457 99.5532V99.5386C344.457 97.9126 342.904 96.7188 340.714 96.7188C338.524 96.7188 336.971 97.9126 336.971 99.5386V99.5532C336.971 100.688 337.777 101.575 338.986 101.897V101.941C337.579 102.227 336.591 103.274 336.591 104.629V104.644C336.591 106.453 338.282 107.712 340.714 107.712ZM340.714 101.296C339.608 101.296 338.839 100.652 338.839 99.729V99.7144C338.839 98.7915 339.608 98.147 340.714 98.147C341.82 98.147 342.589 98.7915 342.589 99.7144V99.729C342.589 100.652 341.82 101.296 340.714 101.296ZM340.714 106.27C339.447 106.27 338.546 105.537 338.546 104.519V104.504C338.546 103.479 339.432 102.739 340.714 102.739C341.988 102.739 342.882 103.479 342.882 104.504V104.519C342.882 105.537 341.981 106.27 340.714 106.27Z" fill="white"/>
<g clip-path="url(#clip0_431_73350)">
<path d="M591.855 101.774H590.289C589.877 101.774 589.606 102.062 589.606 102.482V107.417C589.606 107.837 589.877 108.126 590.289 108.126H591.855C592.266 108.126 592.537 107.837 592.537 107.417V102.482C592.537 102.062 592.266 101.774 591.855 101.774V101.774ZM586.999 103.804H585.432C585.021 103.804 584.75 104.084 584.75 104.504V107.417C584.75 107.837 585.021 108.126 585.432 108.126H586.999C587.41 108.126 587.681 107.837 587.681 107.417V104.504C587.681 104.084 587.41 103.804 586.999 103.804ZM596.711 99.4287H595.145C594.734 99.4287 594.463 99.7175 594.463 100.137V107.417C594.463 107.837 594.734 108.126 595.145 108.126H596.711C597.114 108.126 597.394 107.837 597.394 107.417V100.137C597.394 99.7175 597.114 99.4287 596.711 99.4287V99.4287ZM601.576 96.865H600.001C599.599 96.865 599.319 97.1537 599.319 97.5737V107.417C599.319 107.837 599.599 108.126 600.001 108.126H601.576C601.979 108.126 602.25 107.837 602.25 107.417V97.5737C602.25 97.1537 601.979 96.865 601.576 96.865Z" fill="white"/>
</g>
<g clip-path="url(#clip1_431_73350)">
<path opacity="0.85" d="M619.501 105.064C618.398 105.064 617.462 105.641 616.972 106.306C616.893 106.429 616.928 106.569 617.051 106.683L618.897 108.459C619.195 108.739 619.335 108.826 619.501 108.826C619.667 108.826 619.816 108.748 620.105 108.459L621.96 106.683C622.073 106.569 622.1 106.403 621.995 106.263C621.505 105.624 620.568 105.073 619.492 105.073L619.501 105.064ZM619.501 100.619C617.13 100.619 615.003 101.678 613.857 103.078C613.743 103.218 613.752 103.366 613.883 103.506L615.065 104.688C615.231 104.845 615.441 104.828 615.59 104.661C616.5 103.646 617.987 102.911 619.51 102.92C621.041 102.92 622.537 103.673 623.465 104.688C623.605 104.845 623.788 104.836 623.955 104.688L625.136 103.515C625.258 103.393 625.276 103.226 625.162 103.086C624.016 101.678 621.89 100.628 619.518 100.628L619.501 100.619ZM628.172 100.015C626.387 97.81 623.027 96.1913 619.501 96.1913C615.975 96.1913 612.606 97.81 610.83 100.015C610.725 100.146 610.725 100.313 610.856 100.453L611.906 101.52C612.055 101.669 612.273 101.669 612.413 101.52C614.286 99.5338 616.745 98.4838 619.501 98.4838C622.257 98.4838 624.751 99.5425 626.606 101.52C626.746 101.66 626.947 101.651 627.096 101.503L628.146 100.453C628.286 100.313 628.277 100.146 628.172 100.015V100.015Z" fill="white"/>
</g>
<g clip-path="url(#clip2_431_73350)">
<path opacity="0.85" d="M646.594 100.137H639.445C639.025 100.137 638.78 100.199 638.614 100.365C638.456 100.531 638.386 100.776 638.386 101.187V103.83C638.386 104.241 638.448 104.477 638.614 104.644C638.78 104.81 639.025 104.871 639.427 104.871H646.594C647.005 104.871 647.241 104.81 647.408 104.644C647.574 104.477 647.635 104.241 647.635 103.83V101.179C647.635 100.767 647.574 100.531 647.408 100.365C647.241 100.199 647.005 100.137 646.594 100.137ZM649.192 98.5012H639.891C638.894 98.5012 638.045 98.5975 637.441 99.2012C636.837 99.805 636.75 100.654 636.75 101.634V103.349C636.75 104.364 636.837 105.195 637.441 105.799C638.045 106.402 638.894 106.499 639.9 106.499H649.192C650.207 106.499 651.056 106.402 651.66 105.799C652.264 105.195 652.351 104.355 652.351 103.349V101.651C652.351 100.636 652.264 99.805 651.66 99.2012C651.056 98.5975 650.207 98.5012 649.192 98.5012ZM651.397 103.506C651.397 104.119 651.319 104.749 650.96 105.107C650.601 105.466 649.962 105.545 649.359 105.545H639.743C639.13 105.545 638.491 105.466 638.132 105.107C637.774 104.749 637.704 104.11 637.704 103.506V101.502C637.704 100.881 637.782 100.251 638.132 99.8925C638.491 99.5337 639.139 99.455 639.76 99.455H649.359C649.971 99.455 650.61 99.5337 650.96 99.8925C651.319 100.251 651.397 100.881 651.397 101.485V103.506V103.506ZM653.156 100.969V104.022C653.62 103.996 654.25 103.392 654.25 102.491C654.25 101.59 653.62 100.995 653.156 100.969Z" fill="white"/>
</g>
<rect width="375" height="45" transform="translate(293 135)" fill="#004F83"/>
<path d="M308.691 162.5H310.581V151.931H308.699L305.938 153.872V155.652L308.567 153.792H308.691V162.5ZM313.218 162.5H320.557V160.933H315.774V160.779L317.891 158.728C319.817 156.875 320.396 155.923 320.396 154.722V154.7C320.396 152.92 318.916 151.667 316.858 151.667C314.654 151.667 313.116 153.044 313.116 155.015L313.123 155.037L314.881 155.044L314.888 155.015C314.888 153.923 315.642 153.184 316.763 153.184C317.862 153.184 318.528 153.887 318.528 154.861V154.883C318.528 155.696 318.125 156.23 316.69 157.681L313.218 161.226V162.5ZM323.714 155.652C324.388 155.652 324.879 155.139 324.879 154.495C324.879 153.843 324.388 153.337 323.714 153.337C323.047 153.337 322.549 153.843 322.549 154.495C322.549 155.139 323.047 155.652 323.714 155.652ZM323.714 161.086C324.388 161.086 324.879 160.581 324.879 159.929C324.879 159.277 324.388 158.772 323.714 158.772C323.047 158.772 322.549 159.277 322.549 159.929C322.549 160.581 323.047 161.086 323.714 161.086ZM331.866 162.5H333.675V160.471H335.096V158.911H333.675V151.931H331.002C329.566 154.114 328.065 156.545 326.695 158.926V160.471H331.866V162.5ZM328.453 158.955V158.845C329.478 157.051 330.702 155.095 331.786 153.44H331.895V158.955H328.453ZM340.714 162.712C343.146 162.712 344.838 161.453 344.838 159.644V159.629C344.838 158.274 343.856 157.227 342.443 156.941V156.897C343.651 156.575 344.457 155.688 344.457 154.553V154.539C344.457 152.913 342.904 151.719 340.714 151.719C338.524 151.719 336.971 152.913 336.971 154.539V154.553C336.971 155.688 337.777 156.575 338.986 156.897V156.941C337.579 157.227 336.591 158.274 336.591 159.629V159.644C336.591 161.453 338.282 162.712 340.714 162.712ZM340.714 156.296C339.608 156.296 338.839 155.652 338.839 154.729V154.714C338.839 153.792 339.608 153.147 340.714 153.147C341.82 153.147 342.589 153.792 342.589 154.714V154.729C342.589 155.652 341.82 156.296 340.714 156.296ZM340.714 161.27C339.447 161.27 338.546 160.537 338.546 159.519V159.504C338.546 158.479 339.432 157.739 340.714 157.739C341.988 157.739 342.882 158.479 342.882 159.504V159.519C342.882 160.537 341.981 161.27 340.714 161.27Z" fill="white"/>
<g clip-path="url(#clip3_431_73350)">
<path d="M591.855 156.774H590.289C589.877 156.774 589.606 157.062 589.606 157.482V162.417C589.606 162.837 589.877 163.126 590.289 163.126H591.855C592.266 163.126 592.537 162.837 592.537 162.417V157.482C592.537 157.062 592.266 156.774 591.855 156.774V156.774ZM586.999 158.804H585.432C585.021 158.804 584.75 159.084 584.75 159.504V162.417C584.75 162.837 585.021 163.126 585.432 163.126H586.999C587.41 163.126 587.681 162.837 587.681 162.417V159.504C587.681 159.084 587.41 158.804 586.999 158.804ZM596.711 154.429H595.145C594.734 154.429 594.463 154.717 594.463 155.137V162.417C594.463 162.837 594.734 163.126 595.145 163.126H596.711C597.114 163.126 597.394 162.837 597.394 162.417V155.137C597.394 154.717 597.114 154.429 596.711 154.429V154.429ZM601.576 151.865H600.001C599.599 151.865 599.319 152.154 599.319 152.574V162.417C599.319 162.837 599.599 163.126 600.001 163.126H601.576C601.979 163.126 602.25 162.837 602.25 162.417V152.574C602.25 152.154 601.979 151.865 601.576 151.865Z" fill="white"/>
</g>
<g clip-path="url(#clip4_431_73350)">
<path opacity="0.85" d="M619.501 160.064C618.398 160.064 617.462 160.641 616.972 161.306C616.893 161.429 616.928 161.569 617.051 161.683L618.897 163.459C619.195 163.739 619.335 163.826 619.501 163.826C619.667 163.826 619.816 163.748 620.105 163.459L621.96 161.683C622.073 161.569 622.1 161.403 621.995 161.263C621.505 160.624 620.568 160.073 619.492 160.073L619.501 160.064ZM619.501 155.619C617.13 155.619 615.003 156.678 613.857 158.078C613.743 158.218 613.752 158.366 613.883 158.506L615.065 159.688C615.231 159.845 615.441 159.828 615.59 159.661C616.5 158.646 617.987 157.911 619.51 157.92C621.041 157.92 622.537 158.673 623.465 159.688C623.605 159.845 623.788 159.836 623.955 159.688L625.136 158.515C625.258 158.393 625.276 158.226 625.162 158.086C624.016 156.678 621.89 155.628 619.518 155.628L619.501 155.619ZM628.172 155.015C626.387 152.81 623.027 151.191 619.501 151.191C615.975 151.191 612.606 152.81 610.83 155.015C610.725 155.146 610.725 155.313 610.856 155.453L611.906 156.52C612.055 156.669 612.273 156.669 612.413 156.52C614.286 154.534 616.745 153.484 619.501 153.484C622.257 153.484 624.751 154.543 626.606 156.52C626.746 156.66 626.947 156.651 627.096 156.503L628.146 155.453C628.286 155.313 628.277 155.146 628.172 155.015V155.015Z" fill="white"/>
</g>
<g clip-path="url(#clip5_431_73350)">
<path opacity="0.85" d="M646.594 155.137H639.445C639.025 155.137 638.78 155.199 638.614 155.365C638.456 155.531 638.386 155.776 638.386 156.187V158.83C638.386 159.241 638.448 159.477 638.614 159.644C638.78 159.81 639.025 159.871 639.427 159.871H646.594C647.005 159.871 647.241 159.81 647.408 159.644C647.574 159.477 647.635 159.241 647.635 158.83V156.179C647.635 155.767 647.574 155.531 647.408 155.365C647.241 155.199 647.005 155.137 646.594 155.137ZM649.192 153.501H639.891C638.894 153.501 638.045 153.597 637.441 154.201C636.837 154.805 636.75 155.654 636.75 156.634V158.349C636.75 159.364 636.837 160.195 637.441 160.799C638.045 161.402 638.894 161.499 639.9 161.499H649.192C650.207 161.499 651.056 161.402 651.66 160.799C652.264 160.195 652.351 159.355 652.351 158.349V156.651C652.351 155.636 652.264 154.805 651.66 154.201C651.056 153.597 650.207 153.501 649.192 153.501ZM651.397 158.506C651.397 159.119 651.319 159.749 650.96 160.107C650.601 160.466 649.962 160.545 649.359 160.545H639.743C639.13 160.545 638.491 160.466 638.132 160.107C637.774 159.749 637.704 159.11 637.704 158.506V156.502C637.704 155.881 637.782 155.251 638.132 154.892C638.491 154.534 639.139 154.455 639.76 154.455H649.359C649.971 154.455 650.61 154.534 650.96 154.892C651.319 155.251 651.397 155.881 651.397 156.485V158.506V158.506ZM653.156 155.969V159.022C653.62 158.996 654.25 158.392 654.25 157.491C654.25 156.59 653.62 155.995 653.156 155.969Z" fill="white"/>
</g>
<defs>
<clipPath id="clip0_431_73350">
<rect width="21" height="21" fill="white" transform="translate(583 92)"/>
</clipPath>
<clipPath id="clip1_431_73350">
<rect width="21" height="21" fill="white" transform="translate(609 92)"/>
</clipPath>
<clipPath id="clip2_431_73350">
<rect width="21" height="21" fill="white" transform="translate(635 92)"/>
</clipPath>
<clipPath id="clip3_431_73350">
<rect width="21" height="21" fill="white" transform="translate(583 147)"/>
</clipPath>
<clipPath id="clip4_431_73350">
<rect width="21" height="21" fill="white" transform="translate(609 147)"/>
</clipPath>
<clipPath id="clip5_431_73350">
<rect width="21" height="21" fill="white" transform="translate(635 147)"/>
</clipPath>
</defs>
</svg>
